build/img/icons/analytics.svg

<svg width="56" height="56" viewBox="0 0 56 56" fill="none" xmlns="http://www.w3.org/2000/svg">
<path d="M50.1488 15.4167L47.6008 8.9599C47.5789 8.82098 47.5222 8.68984 47.4361 8.57867C47.3499 8.4675 47.2371 8.37991 47.108 8.32404C46.979 8.26817 46.8379 8.24583 46.6978 8.25909C46.5578 8.27235 46.4234 8.32079 46.3072 8.3999L39.4528 10.9311C39.2662 11.0211 39.1195 11.1769 39.0408 11.3685C38.9621 11.5602 38.957 11.7741 39.0264 11.9693C39.0959 12.1644 39.235 12.3271 39.4171 12.4259C39.5991 12.5247 39.8113 12.5528 40.0128 12.5047L45.1312 10.6007L36.5856 29.3999L32.2232 21.9743C32.1458 21.8425 32.0339 21.7344 31.8996 21.6615C31.7652 21.5886 31.6136 21.5538 31.4609 21.5607C31.3083 21.5676 31.1604 21.616 31.0332 21.7007C30.906 21.7855 30.8044 21.9033 30.7392 22.0415L24.4616 35.4367L19.4104 25.7599C19.3418 25.6168 19.2323 25.4973 19.0957 25.4165C18.9591 25.3357 18.8016 25.2974 18.6432 25.3063C18.4932 25.3105 18.3471 25.3548 18.2201 25.4346C18.0931 25.5143 17.9897 25.6267 17.9208 25.7599L10.0808 42.9015V9.2399C10.0808 9.01712 9.99227 8.80347 9.83474 8.64593C9.67721 8.4884 9.46355 8.3999 9.24077 8.3999C9.01799 8.3999 8.80433 8.4884 8.6468 8.64593C8.48927 8.80347 8.40077 9.01712 8.40077 9.2399V46.7599C8.40077 46.7599 8.40077 46.7991 8.40077 46.8159C8.39896 46.8476 8.39896 46.8794 8.40077 46.9111C8.40077 46.9111 8.40077 46.9615 8.40077 46.9895C8.40077 47.0175 8.40077 47.0399 8.40077 47.0679L8.43997 47.1463L8.47917 47.2135L8.52957 47.2807L8.57997 47.3423L8.64157 47.3983L8.70317 47.4487L8.78717 47.4991L8.83757 47.5271L8.96637 47.5719H8.99997H9.16237H46.6824C46.9051 47.5719 47.1188 47.4834 47.2763 47.3259C47.4339 47.1683 47.5224 46.9547 47.5224 46.7319C47.5224 46.5091 47.4339 46.2955 47.2763 46.1379C47.1188 45.9804 46.9051 45.8919 46.6824 45.8919H10.5456L18.716 28.0447L23.756 37.7215C23.8284 37.8605 23.9384 37.9765 24.0733 38.0563C24.2083 38.1361 24.3629 38.1766 24.5196 38.1731C24.6764 38.1696 24.829 38.1223 24.9603 38.0366C25.0915 37.9508 25.1962 37.83 25.2624 37.6879L31.5848 24.2031L35.9584 31.6455C36.0363 31.7783 36.1492 31.8871 36.2847 31.9601C36.4203 32.033 36.5733 32.0673 36.727 32.0592C36.8807 32.0511 37.0293 32.001 37.1564 31.9142C37.2836 31.8274 37.3844 31.7073 37.448 31.5671L46.7048 11.2615L48.5864 16.0327C48.6719 16.2344 48.8328 16.3946 49.0349 16.4794C49.2369 16.5641 49.464 16.5665 49.6678 16.4862C49.8716 16.4058 50.0359 16.249 50.1258 16.0492C50.2156 15.8495 50.2239 15.6225 50.1488 15.4167Z" fill="#27AE60"/>
</svg>

<svg viewBox="0 0 56 56" fill="none" xmlns="http://www.w3.org/2000/svg"><path d="M50.149 15.417L47.6 8.96a.835.835 0 00-1.294-.56l-6.854 2.531a.84.84 0 00.56 1.574L45.13 10.6l-8.544 18.8-4.363-7.426a.84.84 0 00-1.484.067l-6.277 13.396-5.052-9.677a.801.801 0 00-.767-.454.84.84 0 00-.722.454L10.08 42.9V9.24a.84.84 0 00-1.68 0v37.576a.835.835 0 000 .095v.157l.039.078.04.068.05.067.05.061.062.056.061.05.084.051.05.028.13.045h37.715a.84.84 0 000-1.68H10.546l8.17-17.847 5.04 9.676a.84.84 0 001.506-.033l6.323-13.485 4.373 7.442a.84.84 0 001.49-.078l9.257-20.305 1.881 4.77a.84.84 0 001.563-.615z" fill="#27AE60"/></svg>
